dist/images/chevron.svg

<?xml version="1.0" encoding="UTF-8"?>
<svg width="7px" height="11px" viewBox="0 0 7 11" version="1.1" xmlns="http://www.w3.org/2000/svg" xmlns:xlink="http://www.w3.org/1999/xlink">
    <!-- Generator: Sketch 62 (91390) - https://sketch.com -->
    <title></title>
    <desc>Created with Sketch.</desc>
    <g id="Design-V1" stroke="none" stroke-width="1" fill="none" fill-rule="evenodd">
        <g id="Home-Page---Green--Copy" transform="translate(-156.000000, -378.000000)" fill="#4DCA98" fill-rule="nonzero">
            <g id="Mega-Menu" transform="translate(58.500000, 152.000000)">
                <g id="Group-15" transform="translate(90.500000, 61.000000)">
                    <g id="Group-8">
                        <path d="M8.88866774,175.373004 C9.04491749,175.373004 9.17772944,175.318317 9.28710429,175.208942 L13.8339685,170.662078 C13.958968,170.552703 14.021468,170.419891 14.021468,170.263641 C14.021468,170.107392 13.958968,169.97458 13.8339685,169.865205 L9.28710429,165.318341 C9.17772944,165.208966 9.04491749,165.154279 8.88866774,165.154279 C8.732418,165.154279 8.59960605,165.208966 8.49023119,165.318341 L7.97460742,165.833965 C7.86523257,165.943339 7.80663896,166.076151 7.79882659,166.232401 C7.79101423,166.388651 7.84179512,166.521463 7.95116998,166.630838 L11.5839738,170.263641 L7.95116998,173.896445 C7.84179512,174.00582 7.79101423,174.138632 7.79882659,174.294882 C7.80663896,174.451132 7.86523257,174.583944 7.97460742,174.693318 L8.49023119,175.208942 C8.59960605,175.318317 8.732418,175.373004 8.88866774,175.373004 Z" id=""></path>
                    </g>
                </g>
            </g>
        </g>
    </g>
</svg>

<svg width="7" height="11" viewBox="0 0 7 11" version="1.1" xmlns="http://www.w3.org/2000/svg"><g id="Design-V1" stroke="none" stroke-width="1" fill="none" fill-rule="evenodd"><g id="Home-Page---Green--Copy" transform="translate(-156 -378)" fill="#4DCA98" fill-rule="nonzero"><g id="Mega-Menu" transform="translate(58.5 152)"><g id="Group-15" transform="translate(90.5 61)"><g id="Group-8"><path d="M8.889 175.373a.543.543 0 00.398-.164l4.547-4.547a.51.51 0 00.187-.398.51.51 0 00-.187-.399l-4.547-4.547a.542.542 0 00-.398-.164.542.542 0 00-.399.164l-.515.516a.586.586 0 00-.176.398.504.504 0 00.152.399l3.633 3.633-3.633 3.632a.504.504 0 00-.152.399.583.583 0 00.176.398l.515.516c.11.11.242.164.399.164z" id=""/></g></g></g></g></g></svg>
